!! 00000] TT[00
!! NN
!!!OTL: Gechang taihang Shan
!!!ARE: Asia, China, Shanxi
!! Ethnic Group: Han
!! MM, S. 25, s. Bandprotokoll)
!!!SCT: C0229
!!!YEM: Copyright 1995, estate of Helmut Schaffrath.
**kern
*ICvox
*Ivox
*M2/4
*k[f#]
*G:
{8.dd
16ee
8dd
8g
=1
4.a
8b
=2
8.g
16f#
8e
8g
=3
2a}
=4
{8.ee
16gg
8ee
8dd
=5
4cc
8b
8a
=6
8dd
4g
8a
=7
4.g
8r}
=8
{4g
8g
8a
=9
4dd
8dd
8a
=10
4g
8a
8g
=11
4fn
8e
8d}
=12
{8.a
16b
8a
16g
16g
=13
4a
8c
8B
=14
4.d
8e
=15
4d
4r}
==
!!!AGN: Xiaodiao. Xin minge
!! wahrscheinlich ohne Aufnahme.
!!!ONB: ESAC (Essen Associative Code) Database: CHINA
!!!AMT: simple duple
!!!AIN: vox
!!!EED: Helmut Schaffrath
!!!EEV: 1.0
*-
